;FLAVOR:Marlin
;TIME:4247
;Filament used: 4.20393m
;Layer height: 0.2
;Generated with Cura_SteamEngine 1.2.2
M190 S70
M104 S225
M109 S225
G28
G1 Z50.00 F400
G92 E0
G1 F200 E3
G92 E0
M132 X Y Z A
M907 X100 Y100 Z50 A100
;LAYER_COUNT:352
;LAYER:0
M107
G0 F3000 X-10.146 Y-9.253 Z0.3
;TYPE:SKIRT
G1 F1500 X-10.146 Y-16.309 E0.35203
G1 X-10.106 Y-17.098 E0.39144
G1 X-9.987 Y-17.878 E0.4308
G1 X-9.789 Y-18.643 E0.47023
G1 X-9.515 Y-19.383 E0.5096
G1 X-9.167 Y-20.092 E0.549
G1 X-8.749 Y-20.763 E0.58844
G1 X-8.266 Y-21.387 E0.62781
G1 X-7.861 Y-21.824 E0.65753
G1 X-7.744 Y-21.941 E0.66579
G1 X-7.158 Y-22.471 E0.70521
G1 X-6.522 Y-22.938 E0.74457
G1 X-5.842 Y-23.339 E0.78396
G1 X-5.124 Y-23.669 E0.82338
G1 X-4.377 Y-23.924 E0.86276
G1 X-3.608 Y-24.103 E0.90215
G1 X-2.824 Y-24.203 E0.94158
G1 X-2.229 Y-24.226 E0.97129
G1 X2.23 Y-24.226 E1.19375
G1 X3.019 Y-24.186 E1.23316
G1 X3.799 Y-24.067 E1.27253
G1 X4.564 Y-23.869 E1.31195
G1 X5.304 Y-23.595 E1.35132
G1 X6.013 Y-23.247 E1.39072
G1 X6.684 Y-22.829 E1.43016
G1 X7.308 Y-22.346 E1.46953
G1 X7.745 Y-21.941 E1.49926
G1 X7.862 Y-21.824 E1.50751
G1 X8.392 Y-21.238 E1.54693
G1 X8.859 Y-20.602 E1.5863
G1 X9.26 Y-19.922 E1.62568
G1 X9.59 Y-19.204 E1.66511
G1 X9.845 Y-18.457 E1.70449
G1 X10.024 Y-17.688 E1.74388
G1 X10.124 Y-16.904 E1.78331
G1 X10.147 Y-16.309 E1.81301
G1 X10.147 Y-12.344 E2.01083
G1 X10.706 Y-12.07 E2.04189
G1 X11.377 Y-11.652 E2.08133
G1 X12.001 Y-11.169 E2.1207
G1 X12.438 Y-10.764 E2.15042
G1 X12.555 Y-10.647 E2.15868
G1 X13.085 Y-10.061 E2.1981
G1 X13.552 Y-9.425 E2.23746
G1 X13.953 Y-8.745 E2.27685
G1 X14.283 Y-8.027 E2.31627
G1 X14.538 Y-7.28 E2.35565
G1 X14.717 Y-6.511 E2.39504
G1 X14.817 Y-5.727 E2.43447
G1 X14.84 Y-5.132 E2.46418
G1 X14.84 Y16.309 E3.53387
G1 X14.8 Y17.098 E3.57329
G1 X14.681 Y17.878 E3.61265
G1 X14.483 Y18.643 E3.65208
G1 X14.209 Y19.383 E3.69144
G1 X13.861 Y20.092 E3.73085
G1 X13.443 Y20.763 E3.77029
G1 X12.96 Y21.387 E3.80966
G1 X12.555 Y21.824 E3.83938
G1 X12.438 Y21.941 E3.84764
G1 X11.852 Y22.471 E3.88706
G1 X11.216 Y22.938 E3.92642
G1 X10.536 Y23.339 E3.96581
G1 X9.818 Y23.669 E4.00523
G1 X9.071 Y23.924 E4.04461
G1 X8.302 Y24.103 E4.084
G1 X7.518 Y24.203 E4.12343
G1 X6.923 Y24.226 E4.15314
G1 X-6.922 Y24.226 E4.84387
G1 X-7.711 Y24.186 E4.88328
G1 X-8.491 Y24.067 E4.92265
G1 X-9.256 Y23.869 E4.96207
G1 X-9.996 Y23.595 E5.00144
G1 X-10.705 Y23.247 E5.04084
G1 X-11.376 Y22.829 E5.08028
G1 X-12 Y22.346 E5.11965
G1 X-12.437 Y21.941 E5.14938
G1 X-12.554 Y21.824 E5.15763
G1 X-13.084 Y21.238 E5.19705
G1 X-13.551 Y20.602 E5.23641
G1 X-13.952 Y19.922 E5.2758
G1 X-14.282 Y19.204 E5.31522
G1 X-14.537 Y18.457 E5.3546
G1 X-14.716 Y17.688 E5.39399
G1 X-14.816 Y16.904 E5.43342
G1 X-14.839 Y16.309 E5.46313
G1 X-14.839 Y-2.044 E6.37877
G1 X-14.799 Y-2.833 E6.41818
G1 X-14.68 Y-3.613 E6.45755
G1 X-14.482 Y-4.378 E6.49697
G1 X-14.208 Y-5.118 E6.53634
G1 X-13.86 Y-5.827 E6.57574
G1 X-13.442 Y-6.498 E6.61518
G1 X-12.959 Y-7.122 E6.65455
G1 X-12.554 Y-7.559 E6.68427
G1 X-12.437 Y-7.676 E6.69253
G1 X-11.851 Y-8.206 E6.73195
G1 X-11.215 Y-8.673 E6.77131
G1 X-10.535 Y-9.074 E6.8107
G1 X-10.146 Y-9.253 E6.83206
G0 F3000 X-9.746 Y-8.994
G1 F1500 X-9.746 Y-16.309 E7.19701
G1 X-9.706 Y-17.077 E7.23538
G1 X-9.587 Y-17.837 E7.27376
G1 X-9.389 Y-18.58 E7.31212
G1 X-9.115 Y-19.299 E7.3505
G1 X-8.768 Y-19.985 E7.38886
G1 X-8.352 Y-20.632 E7.42723
G1 X-7.871 Y-21.232 E7.4656
G1 X-7.579 Y-21.542 E7.48685
G1 X-7.462 Y-21.659 E7.4951
G1 X-6.89 Y-22.173 E7.53347
G1 X-6.268 Y-22.626 E7.57186
G1 X-5.603 Y-23.012 E7.61022
G1 X-4.901 Y-23.327 E7.64861
G1 X-4.17 Y-23.567 E7.68699
G1 X-3.419 Y-23.73 E7.72533
G1 X-2.654 Y-23.814 E7.76373
G1 X-2.229 Y-23.826 E7.78494
G1 X2.23 Y-23.826 E8.0074
G1 X2.998 Y-23.786 E8.04577
G1 X3.758 Y-23.667 E8.08414
G1 X4.501 Y-23.469 E8.12251
G1 X5.22 Y-23.195 E8.16089
G1 X5.906 Y-22.848 E8.19925
G1 X6.553 Y-22.432 E8.23762
G1 X7.153 Y-21.951 E8.27599
G1 X7.463 Y-21.659 E8.29724
G1 X7.58 Y-21.542 E8.30549
G1 X8.094 Y-20.97 E8.34386
G1 X8.547 Y-20.348 E8.38225
G1 X8.933 Y-19.683 E8.42061
G1 X9.248 Y-18.981 E8.45899
G1 X9.488 Y-18.25 E8.49738
G1 X9.651 Y-17.499 E8.53572
G1 X9.735 Y-16.734 E8.57411
G1 X9.747 Y-16.309 E8.59533
G1 X9.747 Y-12.081 E8.80626
G1 X9.913 Y-12.018 E8.81512
G1 X10.599 Y-11.671 E8.85347
G1 X11.246 Y-11.255 E8.89185
G1 X11.846 Y-10.774 E8.93021
G1 X12.156 Y-10.482 E8.95146
G1 X12.273 Y-10.365 E8.95972
G1 X12.787 Y-9.793 E8.99808
G1 X13.24 Y-9.171 E9.03647
G1 X13.626 Y-8.506 E9.07483
G1 X13.941 Y-7.804 E9.11322
G1 X14.181 Y-7.073 E9.15161
G1 X14.344 Y-6.322 E9.18995
G1 X14.428 Y-5.557 E9.22834
G1 X14.44 Y-5.132 E9.24955
G1 X14.44 Y16.309 E10.31925
G1 X14.4 Y17.077 E10.35762
G1 X14.281 Y17.837 E10.39599
G1 X14.083 Y18.58 E10.43436
G1 X13.809 Y19.299 E10.47274
G1 X13.462 Y19.985 E10.5111
G1 X13.046 Y20.632 E10.54947
G1 X12.565 Y21.232 E10.58784
G1 X12.273 Y21.542 E10.60909
G1 X12.156 Y21.659 E10.61734
G1 X11.584 Y22.173 E10.65571
G1 X10.962 Y22.626 E10.6941
G1 X10.297 Y23.012 E10.73246
G1 X9.595 Y23.327 E10.77084
G1 X8.864 Y23.567 E10.80923
G1 X8.113 Y23.73 E10.84757
G1 X7.348 Y23.814 E10.88596
G1 X6.923 Y23.826 E10.90718
G1 X-6.922 Y23.826 E11.59791
G1 X-7.69 Y23.786 E11.63627
G1 X-8.45 Y23.667 E11.67465
G1 X-9.193 Y23.469 E11.71301
G1 X-9.912 Y23.195 E11.7514
G1 X-10.598 Y22.848 E11.78976
G1 X-11.245 Y22.432 E11.82813
G1 X-11.845 Y21.951 E11.8665
G1 X-12.155 Y21.659 E11.88774
G1 X-12.272 Y21.542 E11.896
G1 X-12.786 Y20.97 E11.93436
G1 X-13.239 Y20.348 E11.97275
G1 X-13.625 Y19.683 E12.01112
G1 X-13.94 Y18.981 E12.0495
G1 X-14.18 Y18.25 E12.08789
G1 X-14.343 Y17.499 E12.12623
G1 X-14.427 Y16.734 E12.16462
G1 X-14.439 Y16.309 E12.18583
G1 X-14.439 Y-2.044 E13.10147
G1 X-14.399 Y-2.812 E13.13984
G1 X-14.28 Y-3.572 E13.17822
G1 X-14.082 Y-4.315 E13.21658
G1 X-13.808 Y-5.034 E13.25496
G1 X-13.461 Y-5.72 E13.29332
G1 X-13.045 Y-6.367 E13.33169
G1 X-12.564 Y-6.967 E13.37006
G1 X-12.272 Y-7.277 E13.39131
G1 X-12.155 Y-7.394 E13.39956
G1 X-11.583 Y-7.908 E13.43793
G1 X-10.961 Y-8.361 E13.47632
G1 X-10.296 Y-8.747 E13.51468
G1 X-9.746 Y-8.994 E13.54476
G0 F3000 X-9.346 Y-8.726
G1 F1500 X-9.346 Y-16.309 E13.92308
G1 X-9.306 Y-17.056 E13.9604
G1 X-9.187 Y-17.794 E13.99769
G1 X-8.989 Y-18.516 E14.03504
G1 X-8.716 Y-19.212 E14.07234
G1 X-8.369 Y-19.875 E14.10967
G1 X-7.954 Y-20.498 E14.14702
G1 X-7.296 Y-21.259 E14.19721
G1 X-7.179 Y-21.376 E14.20547
G1 X-6.622 Y-21.876 E14.24281
G1 X-6.016 Y-22.313 E14.28008
G1 X-5.366 Y-22.684 E14.31742
G1 X-4.68 Y-22.983 E14.35476
G1 X-3.966 Y-23.207 E14.39209
G1 X-3.233 Y-23.354 E14.42939
G1 X-2.229 Y-23.426 E14.47961
G1 X2.23 Y-23.426 E14.70207
G1 X2.977 Y-23.386 E14.73939
G1 X3.715 Y-23.267 E14.77668
G1 X4.437 Y-23.069 E14.81403
G1 X5.133 Y-22.796 E14.85133
G1 X5.796 Y-22.449 E14.88867
G1 X6.419 Y-22.034 E14.92601
G1 X7.18 Y-21.376 E14.9762
G1 X7.297 Y-21.259 E14.98446
G1 X7.797 Y-20.702 E15.0218
G1 X8.234 Y-20.096 E15.05908
G1 X8.605 Y-19.446 E15.09642
G1 X8.904 Y-18.76 E15.13375
G1 X9.128 Y-18.046 E15.17108
G1 X9.275 Y-17.313 E15.20838
G1 X9.347 Y-16.309 E15.2586
G1 X9.347 Y-11.807 E15.4832
G1 X9.826 Y-11.619 E15.50888
G1 X10.489 Y-11.272 E15.54621
G1 X11.112 Y-10.857 E15.58356
G1 X11.873 Y-10.199 E15.63375
G1 X11.99 Y-10.082 E15.642
G1 X12.49 Y-9.525 E15.67935
G1 X12.927 Y-8.919 E15.71662
G1 X13.298 Y-8.269 E15.75396
G1 X13.597 Y-7.583 E15.79129
G1 X13.821 Y-6.869 E15.82863
G1 X13.968 Y-6.136 E15.86592
G1 X14.04 Y-5.132 E15.91614
G1 X14.04 Y16.309 E16.98584
G1 X14 Y17.056 E17.02316
G1 X13.881 Y17.794 E17.06045
G1 X13.683 Y18.516 E17.0978
G1 X13.41 Y19.212 E17.1351
G1 X13.063 Y19.875 E17.17244
G1 X12.648 Y20.498 E17.20978
G1 X11.99 Y21.259 E17.25997
G1 X11.873 Y21.376 E17.26823
G1 X11.316 Y21.876 E17.30557
G1 X10.71 Y22.313 E17.34285
G1 X10.06 Y22.684 E17.38019
G1 X9.374 Y22.983 E17.41752
G1 X8.66 Y23.207 E17.45485
G1 X7.927 Y23.354 E17.49215
G1 X6.923 Y23.426 E17.54237
G1 X-6.922 Y23.426 E18.2331
G1 X-7.669 Y23.386 E18.27042
G1 X-8.407 Y23.267 E18.30772
G1 X-9.129 Y23.069 E18.34507
G1 X-9.825 Y22.796 E18.38237
G1 X-10.488 Y22.449 E18.4197
G1 X-11.111 Y22.034 E18.45705
G1 X-11.872 Y21.376 E18.50724
G1 X-11.989 Y21.259 E18.51549
G1 X-12.489 Y20.702 E18.55283
G1 X-12.926 Y20.096 E18.59011
G1 X-13.297 Y19.446 E18.62745
G1 X-13.596 Y18.76 E18.66478
G1 X-13.82 Y18.046 E18.70212
G1 X-13.967 Y17.313 E18.73941
G1 X-14.039 Y16.309 E18.78963
G1 X-14.039 Y-2.044 E19.70527
G1 X-13.999 Y-2.791 E19.74259
G1 X-13.88 Y-3.529 E19.77988
G1 X-13.682 Y-4.251 E19.81723
G1 X-13.409 Y-4.947 E19.85453
G1 X-13.062 Y-5.61 E19.89187
G1 X-12.647 Y-6.233 E19.92921
G1 X-11.989 Y-6.994 E19.9794
G1 X-11.872 Y-7.111 E19.98766
G1 X-11.315 Y-7.611 E20.025
G1 X-10.709 Y-8.048 E20.06228
G1 X-10.059 Y-8.419 E20.09961
G1 X-9.373 Y-8.718 E20.13695
G1 X-9.346 Y-8.726 E20.13835
G0 F3000 X-8.946 Y-8.434
G1 F1500 X-8.946 Y-16.309 E20.53124
G1 X-8.906 Y-17.034 E20.56746
G1 X-8.787 Y-17.751 E20.60372
G1 X-8.589 Y-18.45 E20.63997
G1 X-8.316 Y-19.123 E20.6762
G1 X-7.971 Y-19.762 E20.71243
G1 X-7.557 Y-20.359 E20.74868
G1 X-7.013 Y-20.976 E20.78972
G1 X-6.896 Y-21.093 E20.79797
G1 X-6.355 Y-21.577 E20.83419
G1 X-5.764 Y-22 E20.87045
G1 X-5.13 Y-22.354 E20.90667
G1 X-4.461 Y-22.637 E20.94291
G1 X-3.765 Y-22.845 E20.97915
G1 X-3.05 Y-22.975 E21.01541
G1 X-2.229 Y-23.026 E21.05645
G1 X2.23 Y-23.026 E21.27891
G1 X2.955 Y-22.986 E21.31514
G1 X3.672 Y-22.867 E21.3514
G1 X4.371 Y-22.669 E21.38764
G1 X5.044 Y-22.396 E21.42387
G1 X5.683 Y-22.051 E21.4601
G1 X6.28 Y-21.637 E21.49635
G1 X6.897 Y-21.093 E21.53739
G1 X7.014 Y-20.976 E21.54564
G1 X7.498 Y-20.435 E21.58186
G1 X7.921 Y-19.844 E21.61812
G1 X8.275 Y-19.21 E21.65434
G1 X8.558 Y-18.541 E21.69058
G1 X8.766 Y-17.845 E21.72683
G1 X8.896 Y-17.13 E21.76308
G1 X8.947 Y-16.309 E21.80412
G1 X8.947 Y-11.525 E22.0428
G1 X9.064 Y-11.492 E22.04886
G1 X9.737 Y-11.219 E22.08509
G1 X10.376 Y-10.874 E22.12132
G1 X10.973 Y-10.46 E22.15757
G1 X11.59 Y-9.916 E22.19861
G1 X11.707 Y-9.799 E22.20686
G1 X12.191 Y-9.258 E22.24308
G1 X12.614 Y-8.667 E22.27934
G1 X12.968 Y-8.033 E22.31556
G1 X13.251 Y-7.364 E22.3518
G1 X13.459 Y-6.668 E22.38804
G1 X13.589 Y-5.953 E22.4243
G1 X13.64 Y-5.132 E22.46534
G1 X13.64 Y16.309 E23.53504
G1 X13.6 Y17.034 E23.57126
G1 X13.481 Y17.751 E23.60752
G1 X13.283 Y18.45 E23.64377
G1 X13.01 Y19.123 E23.68
G1 X12.665 Y19.762 E23.71623
G1 X12.251 Y20.359 E23.75248
G1 X11.707 Y20.976 E23.79351
G1 X11.59 Y21.093 E23.80177
G1 X11.049 Y21.577 E23.83798
G1 X10.458 Y22 E23.87424
G1 X9.824 Y22.354 E23.91047
G1 X9.155 Y22.637 E23.94671
G1 X8.459 Y22.845 E23.98295
G1 X7.744 Y22.975 E24.01921
G1 X6.923 Y23.026 E24.06025
G1 X-6.922 Y23.026 E24.75098
G1 X-7.647 Y22.986 E24.7872
G1 X-8.364 Y22.867 E24.82346
G1 X-9.063 Y22.669 E24.85971
G1 X-9.736 Y22.396 E24.89594
G1 X-10.375 Y22.051 E24.93217
G1 X-10.972 Y21.637 E24.96842
G1 X-11.589 Y21.093 E25.00945
G1 X-11.706 Y20.976 E25.01771
G1 X-12.19 Y20.435 E25.05392
G1 X-12.613 Y19.844 E25.09018
G1 X-12.967 Y19.21 E25.12641
G1 X-13.25 Y18.541 E25.16265
G1 X-13.458 Y17.845 E25.19889
G1 X-13.588 Y17.13 E25.23515
G1 X-13.639 Y16.309 E25.27619
G1 X-13.639 Y-2.044 E26.19182
G1 X-13.599 Y-2.769 E26.22805
G1 X-13.48 Y-3.486 E26.26431
G1 X-13.282 Y-4.185 E26.30055
G1 X-13.009 Y-4.858 E26.33679
G1 X-12.664 Y-5.497 E26.37302
G1 X-12.25 Y-6.094 E26.40926
G1 X-11.706 Y-6.711 E26.4503
G1 X-11.589 Y-6.828 E26.45856
G1 X-11.048 Y-7.312 E26.49477
G1 X-10.457 Y-7.735 E26.53103
G1 X-9.823 Y-8.089 E26.56726
G1 X-9.154 Y-8.372 E26.6035
G1 X-8.946 Y-8.434 E26.61433
G0 F3000 X-8.546 Y-8.135
G1 F1500 X-8.546 Y-16.309 E27.02213
G1 X-8.506 Y-17.012 E27.05726
G1 X-8.387 Y-17.706 E27.09239
G1 X-8.189 Y-18.381 E27.12748
G1 X-7.917 Y-19.03 E27.16259
G1 X-7.572 Y-19.644 E27.19773
G1 X-7.161 Y-20.215 E27.23283
G1 X-6.73 Y-20.693 E27.26494
G1 X-6.613 Y-20.81 E27.27319
G1 X-6.088 Y-21.279 E27.30831
G1 X-5.513 Y-21.685 E27.34343
G1 X-4.895 Y-22.023 E27.37857
G1 X-4.244 Y-22.29 E27.41368
G1 X-3.566 Y-22.48 E27.4488
G1 X-2.871 Y-22.593 E27.48393
G1 X-2.229 Y-22.626 E27.51601
G1 X2.23 Y-22.626 E27.73847
G1 X2.933 Y-22.586 E27.77359
G1 X3.627 Y-22.467 E27.80872
G1 X4.302 Y-22.269 E27.84382
G1 X4.951 Y-21.997 E27.87893
G1 X5.565 Y-21.652 E27.91406
G1 X6.136 Y-21.241 E27.94916
G1 X6.614 Y-20.81 E27.98127
G1 X6.731 Y-20.693 E27.98953
G1 X7.2 Y-20.168 E28.02465
G1 X7.606 Y-19.593 E28.05977
G1 X7.944 Y-18.975 E28.09491
G1 X8.211 Y-18.324 E28.13001
G1 X8.401 Y-17.646 E28.16514
G1 X8.514 Y-16.951 E28.20027
G1 X8.547 Y-16.309 E28.23234
G1 X8.547 Y-11.223 E28.48608
G1 X8.995 Y-11.092 E28.50937
G1 X9.644 Y-10.82 E28.54448
G1 X10.258 Y-10.475 E28.57962
G1 X10.829 Y-10.064 E28.61472
G1 X11.307 Y-9.633 E28.64683
G1 X11.424 Y-9.516 E28.65508
G1 X11.893 Y-8.991 E28.6902
G1 X12.299 Y-8.416 E28.72532
G1 X12.637 Y-7.798 E28.76046
G1 X12.904 Y-7.147 E28.79557
G1 X13.094 Y-6.469 E28.83069
G1 X13.207 Y-5.774 E28.86582
G1 X13.24 Y-5.132 E28.89789
G1 X13.24 Y16.309 E29.96759
G1 X13.2 Y17.012 E30.00272
G1 X13.081 Y17.706 E30.03785
G1 X12.883 Y18.381 E30.07294
G1 X12.611 Y19.03 E30.10805
G1 X12.266 Y19.644 E30.14319
G1 X11.855 Y20.215 E30.17829
G1 X11.424 Y20.693 E30.2104
G1 X11.307 Y20.81 E30.21865
G1 X10.782 Y21.279 E30.25378
G1 X10.207 Y21.685 E30.28889
G1 X9.589 Y22.023 E30.32403
G1 X8.938 Y22.29 E30.35914
G1 X8.26 Y22.48 E30.39427
G1 X7.565 Y22.593 E30.4294
G1 X6.923 Y22.626 E30.46147
G1 X-6.922 Y22.626 E31.1522
G1 X-7.625 Y22.586 E31.18733
G1 X-8.319 Y22.467 E31.22246
G1 X-8.994 Y22.269 E31.25755
G1 X-9.643 Y21.997 E31.29266
G1 X-10.257 Y21.652 E31.3278
G1 X-10.828 Y21.241 E31.3629
G1 X-11.306 Y20.81 E31.39501
G1 X-11.423 Y20.693 E31.40326
G1 X-11.892 Y20.168 E31.43838
G1 X-12.298 Y19.593 E31.4735
G1 X-12.636 Y18.975 E31.50864
G1 X-12.903 Y18.324 E31.54375
G1 X-13.093 Y17.646 E31.57887
G1 X-13.206 Y16.951 E31.614
G1 X-13.239 Y16.309 E31.64608
G1 X-13.239 Y-2.044 E32.56171
G1 X-13.199 Y-2.747 E32.59684
G1 X-13.08 Y-3.441 E32.63197
G1 X-12.882 Y-4.116 E32.66706
G1 X-12.61 Y-4.765 E32.70217
G1 X-12.265 Y-5.379 E32.73731
G1 X-11.854 Y-5.95 E32.77241
G1 X-11.423 Y-6.428 E32.80452
G1 X-11.306 Y-6.545 E32.81277
G1 X-10.781 Y-7.014 E32.84789
G1 X-10.206 Y-7.42 E32.88301
G1 X-9.588 Y-7.758 E32.91815
G1 X-8.937 Y-8.025 E32.95326
G1 X-8.546 Y-8.135 E32.97352
G0 F3000 X-8.146 Y-7.826
G1 F1500 X-8.146 Y-16.309 E33.39674
G1 X-8.106 Y-16.989 E33.43073
G1 X-7.987 Y-17.659 E33.46467
G1 X-7.79 Y-18.311 E33.49866
G1 X-7.518 Y-18.935 E33.53262
G1 X-7.174 Y-19.523 E33.5666
G1 X-6.764 Y-20.067 E33.60059
G1 X-6.447 Y-20.41 E33.62389
G1 X-6.33 Y-20.527 E33.63214
G1 X-5.821 Y-20.98 E33.66614
G1 X-5.263 Y-21.369 E33.70007
G1 X-4.663 Y-21.691 E33.73405
G1 X-4.029 Y-21.94 E33.76803
G1 X-3.37 Y-22.113 E33.80202
G1 X-2.696 Y-22.207 E33.83597
G1 X-2.229 Y-22.226 E33.85929
G1 X2.23 Y-22.226 E34.08175
G1 X2.91 Y-22.186 E34.11574
G1 X3.58 Y-22.067 E34.14968
G1 X4.232 Y-21.87 E34.18367
G1 X4.856 Y-21.598 E34.21763
G1 X5.444 Y-21.254 E34.25161
G1 X5.988 Y-20.844 E34.2856
G1 X6.331 Y-20.527 E34.3089
G1 X6.448 Y-20.41 E34.31715
G1 X6.901 Y-19.901 E34.35115
G1 X7.29 Y-19.343 E34.38509
G1 X7.612 Y-18.743 E34.41906
G1 X7.861 Y-18.109 E34.45304
G1 X8.034 Y-17.45 E34.48703
G1 X8.128 Y-16.776 E34.52098
G1 X8.147 Y-16.309 E34.5443
G1 X8.147 Y-10.912 E34.81356
G1 X8.273 Y-10.89 E34.81994
G1 X8.925 Y-10.693 E34.85392
G1 X9.549 Y-10.421 E34.88788
G1 X10.137 Y-10.077 E34.92187
G1 X10.681 Y-9.667 E34.95585
G1 X11.024 Y-9.35 E34.97915
G1 X11.141 Y-9.233 E34.98741
G1 X11.594 Y-8.724 E35.0214
G1 X11.983 Y-8.166 E35.05534
G1 X12.305 Y-7.566 E35.08931
G1 X12.554 Y-6.932 E35.12329
G1 X12.727 Y-6.273 E35.15729
G1 X12.821 Y-5.599 E35.19124
G1 X12.84 Y-5.132 E35.21456
G1 X12.84 Y16.309 E36.28425
G1 X12.8 Y16.989 E36.31824
G1 X12.681 Y17.659 E36.35219
G1 X12.484 Y18.311 E36.38617
G1 X12.212 Y18.935 E36.42013
G1 X11.868 Y19.523 E36.45411
G1 X11.458 Y20.067 E36.4881
G1 X11.141 Y20.41 E36.5114
G1 X11.024 Y20.527 E36.51966
G1 X10.515 Y20.98 E36.55365
G1 X9.957 Y21.369 E36.58759
G1 X9.357 Y21.691 E36.62156
G1 X8.723 Y21.94 E36.65554
G1 X8.064 Y22.113 E36.68953
G1 X7.39 Y22.207 E36.72348
G1 X6.923 Y22.226 E36.7468
G1 X-6.922 Y22.226 E37.43753
